icons/prompts-filled.svg

<svg xmlns="http://www.w3.org/2000/svg" width="256" height="256" fill="none"><rect width="256" height="256" fill="#4ADE80" rx="60"/><mask id="mask0_1_111" width="162" height="81" x="47" y="47" maskUnits="userSpaceOnUse" style="mask-type:luminance"><path fill="#fff" d="M209 47H47v81h162z"/></mask><g mask="url(#mask0_1_111)"><path fill="#fff" d="m128 128-81-24.652V47l162 49.304v7.044zm81 24.652v7.044L47 209v-56.348L128 128z"/></g><path fill="#fff" fill-opacity=".5" d="M209 159.696 47 209v-56.348l162-49.304z"/></svg>

<svg width="256" height="256" viewBox="0 0 256 256" fill="none" xmlns="http://www.w3.org/2000/svg">
<rect width="256" height="256" rx="60" fill="#4ADE80" />
<mask id="mask0_1_111" style="mask-type:luminance" maskUnits="userSpaceOnUse" x="47" y="47" width="162" height="81">
<path d="M209 47H47V128H209V47Z" fill="white"/>
</mask>
<g mask="url(#mask0_1_111)">
<path d="M128 128L47 103.348V47L209 96.3043V103.348L128 128ZM209 152.652V159.696L47 209V152.652L128 128L209 152.652Z" fill="white"/>
</g>
<path d="M209 159.696L47 209V152.652L209 103.348V159.696Z" fill="white" fill-opacity="0.5"/>
</svg>
